X:12
T:Kerry Polka
I:titlefont Times-Roman 24
I:partsfont Times-Roman 20
O:Trad. (29.11.2013/NS)
M:2/4
L:1/8
R:polka
K:Dmaj
|:"D"fA BA|fA BA|d2 "G"e>f|"A"ed BA|
"D"fA BA| fA BA|d2 "G"e>f| "A"ed "D"d2:|
|:"D"fa f>e| "G"ed BA|"D"d2 e>f| "A"ed BA|
"D (tai Hm)"fa f>e| "A"ed BA|"G"d2 e>f |"A"ed "D"d2:|
%%vskip
K:Gmaj
P:Mrs. Crowley's
|: "G"DG EG/E/ | DG EG/E/ | DG AG/A/ | "D"BA A2 |
"G"DG EG/E/ | DG EG/E/ | DG "D"AG/A/ | "G"BG G2 :|
|: "G"dB gB | "Am"dB gB | "G/H"dB gB | "C"cA A>B |
"G"dB gB | "G/H"dB gB | "C"GB "D"AG/A/ | "G"BG G2 :|
%%vskip
K:Dmaj
P:Ryan's
|: "D"dd B/c/d/B/ | AF AF | dd B/c/d/B/ | AF ED |
dd B/c/d/B/ | AF Ad/e/ | "D"fd "A"ec | "D"d2 d2 :|
|: "D"fd de/f/ | "G"gf ed | "D"fd Ad | fd "A"a>g |
"D"fd de/f/ | "G"gf ed/e/ | "D"fd "A"ec |"D"d2 d2 :|

